icons/1_Primary/Square.svg

<svg xmlns="http://www.w3.org/2000/svg" width="1024" height="1024" fill="none">
   <g clip-path="url(#a)">
      <path fill="#56595B" d="M512 1024c282.77 0 512-229.23 512-512S794.77 0 512 0 0 229.23 0 512s229.23 512 512 512Z"/>
      <path fill="#fff" d="M666.46 280H357.54a77.523 77.523 0 0 0-54.832 22.708A77.523 77.523 0 0 0 280 357.54v308.92a77.523 77.523 0 0 0 22.708 54.832A77.523 77.523 0 0 0 357.54 744h308.92a77.523 77.523 0 0 0 54.832-22.708A77.523 77.523 0 0 0 744 666.46V357.54a77.523 77.523 0 0 0-22.708-54.832A77.523 77.523 0 0 0 666.46 280Zm-6.81 355.15a24.485 24.485 0 0 1-15.118 22.626 24.485 24.485 0 0 1-9.372 1.864H388.84a24.49 24.49 0 0 1-24.49-24.49V388.84a24.49 24.49 0 0 1 24.49-24.49h246.32a24.49 24.49 0 0 1 24.49 24.49v246.31ZM462.78 575a14 14 0 0 1-14-14.09v-98.37a14.081 14.081 0 0 1 14-14.14h98.48a14.08 14.08 0 0 1 14 14.14v98.29a14.071 14.071 0 0 1-14 14.09h-98.48v.08Z"/>
   </g>
   <defs>
      <clipPath id="a">
         <path fill="#fff" d="M0 0h1024v1024H0z"/>
      </clipPath>
   </defs>
</svg>

<svg width="1024" height="1024" viewBox="0 0 1024 1024" fill="none" xmlns="http://www.w3.org/2000/svg">
<g clip-path="url(#clip0_2_3540)">
<path d="M512 1024C794.77 1024 1024 794.77 1024 512C1024 229.23 794.77 0 512 0C229.23 0 0 229.23 0 512C0 794.77 229.23 1024 512 1024Z" fill="#56595B"/>
<path d="M666.46 280H357.54C347.357 279.999 337.273 282.003 327.865 285.9C318.457 289.796 309.909 295.507 302.708 302.708C295.507 309.909 289.796 318.457 285.9 327.865C282.003 337.273 279.999 347.357 280 357.54V666.46C279.999 676.643 282.003 686.727 285.9 696.135C289.796 705.543 295.507 714.091 302.708 721.292C309.909 728.493 318.457 734.204 327.865 738.1C337.273 741.997 347.357 744.001 357.54 744H666.46C676.643 744.001 686.727 741.997 696.135 738.1C705.543 734.204 714.091 728.493 721.292 721.292C728.493 714.091 734.204 705.543 738.1 696.135C741.997 686.727 744.001 676.643 744 666.46V357.54C744.001 347.357 741.997 337.273 738.1 327.865C734.204 318.457 728.493 309.909 721.292 302.708C714.091 295.507 705.543 289.796 696.135 285.9C686.727 282.003 676.643 279.999 666.46 280ZM659.65 635.15C659.65 638.366 659.017 641.551 657.786 644.522C656.555 647.493 654.751 650.193 652.477 652.467C650.203 654.741 647.503 656.545 644.532 657.776C641.561 659.007 638.376 659.64 635.16 659.64H388.84C382.345 659.64 376.116 657.06 371.523 652.467C366.93 647.874 364.35 641.645 364.35 635.15V388.84C364.35 382.345 366.93 376.116 371.523 371.523C376.116 366.93 382.345 364.35 388.84 364.35H635.16C641.655 364.35 647.884 366.93 652.477 371.523C657.07 376.116 659.65 382.345 659.65 388.84V635.15ZM462.78 575C460.934 575 459.106 574.635 457.402 573.926C455.697 573.217 454.15 572.177 452.849 570.868C451.547 569.558 450.518 568.004 449.82 566.295C449.121 564.586 448.768 562.756 448.78 560.91V462.54C448.764 458.809 450.229 455.225 452.854 452.573C455.479 449.922 459.049 448.421 462.78 448.4H561.26C564.991 448.421 568.561 449.922 571.186 452.573C573.811 455.225 575.276 458.809 575.26 462.54V560.83C575.265 564.553 573.795 568.126 571.171 570.767C568.547 573.408 564.983 574.901 561.26 574.92H462.78V575Z" fill="white"/>
</g>
<defs>
<clipPath id="clip0_2_3540">
<rect width="1024" height="1024" fill="white"/>
</clipPath>
</defs>
</svg>
